X:1
T:Title
%%score { ( 1 3 ) | ( 2 4 ) }
L:1/8
Q:1/4=116
M:2/2
K:F
V:1 treble nm="Grand Piano"
V:3 treble 
V:2 bass 
V:4 bass 
V:1
 F4 F2 [EG]2 | [FA]6 [FA]2 | [FB]4 [FA]4 | c8 | [FA]4 [Fc]4 | [Ff]4 [Fd]4 | [Fc]4 [FA]4 | [CEG]8 | %8
w: H.~J.~Wrightson * *||||||||
 B4 A2 G2 | c4 c4 | f4 e4 | d4 [DG]4 | [FB]4 .[A,FA]4 | [CFG]4 [B,EA]4 | [A,F]8 |] %15
w: |||||||
V:2
 [F,A,C]4 [F,A,C]2 [C,C]2 | [F,C]6 [F,C]2 | [D,B,]4 [D,F,]4 | [C,G,]6 [C,A,]2 | [D,A,]4 [C,A,]4 | %5
 [=B,,_A,]4 [B,,A,]4 | [C,A,]4 F,2 A,2 | C,8 | [G,CE]4 [CE]2 [B,CE]2 | [A,CF]4 [A,CF]4 | %10
 [A,CF]4 [A,^CG]4 | [B,DF]4[K:bass] [B,,B,]4 | [C,G,]4 z2 B,2 | C,4 C,4 | F,8 |] %15
V:3
 x8 | x8 | x8 | F4 E2 F2 | x8 | x8 | x8 | x8 | x8 | x8 | x8 | x8 | x8 | x8 | x8 |] %15
V:4
 x8 | x8 | x8 | x8 | x8 | x8 | z4 C,4 | x8 | x8 | x8 | x8 | x4[K:bass] x4 | z4 C,4 | x8 | x8 |] %15

